src/assets/icons/filters/categories/baby_car.svg

<svg width="48" height="48" viewBox="0 0 48 48" fill="none" xmlns="http://www.w3.org/2000/svg">
<path fill-rule="evenodd" clip-rule="evenodd" d="M47.9982 19.5C47.9982 8.74836 39.2514 0 28.4981 0C27.3047 0.000829873 26.1603 0.475192 25.3163 1.31895C24.4722 2.16271 23.9974 3.30691 23.9962 4.50037V21.0001H14.6224C14.4265 21.0001 14.2775 20.8371 14.1992 20.6835C12.652 17.5469 9.15957 15.9104 5.72355 16.7067C4.37861 17.0233 3.14872 17.709 2.17226 18.6865C1.1958 19.6641 0.511537 20.8948 0.196456 22.2401C-0.626495 25.814 1.19967 29.4475 4.54164 30.8803C4.67958 30.9383 4.76579 31.0323 4.7799 31.0919C5.75804 35.5656 9.24578 39.0267 13.5471 40.1287C13.0621 40.5465 12.6726 41.0636 12.4049 41.6451C12.1371 42.2265 11.9974 42.8587 11.9952 43.4988C11.9961 44.6923 12.4704 45.8367 13.3142 46.6807C14.1579 47.5248 15.3021 47.9995 16.4956 48.0008C17.6888 47.9995 18.8327 47.525 19.6765 46.6813C20.5202 45.8376 20.9947 44.6936 20.996 43.5004C20.996 42.3436 20.5445 41.298 19.8266 40.5002H32.6678C31.9182 41.32 31.5008 42.3896 31.4968 43.5004C31.4985 44.6933 31.9732 45.8369 32.8169 46.6803C33.6605 47.5236 34.8043 47.998 35.9972 47.9992C37.1901 47.998 38.3338 47.5236 39.1775 46.6803C40.0212 45.8369 40.4959 44.6933 40.4975 43.5004C40.4975 42.1508 39.8862 40.9516 38.9426 40.1255C44.1373 38.8151 47.9997 34.1188 47.9997 28.5258V26.9787C47.9956 25.4711 47.4184 24.0214 46.3852 22.9235C46.8882 22.5056 47.2935 21.9825 47.5725 21.391C47.8514 20.7995 47.9973 20.154 47.9997 19.5H47.9982Z" fill="#CFD8DC"/>
<path fill-rule="evenodd" clip-rule="evenodd" d="M44.9982 28.5237C44.9953 30.9035 44.0485 33.1851 42.3655 34.8678C40.6825 36.5504 38.4008 37.4968 36.021 37.4993H16.4708C12.2886 37.4993 8.60181 34.5367 7.70989 30.4517C7.4873 29.4297 6.74429 28.5566 5.72226 28.1208C3.68448 27.2477 2.61386 25.1049 3.12017 22.9104C3.35834 21.9285 3.92231 21.0563 4.72003 20.4362C5.51774 19.8162 6.50208 19.4848 7.51238 19.4963C9.40752 19.4963 10.8481 20.6704 11.5096 22.0106C12.1131 23.238 13.306 23.9998 14.6211 23.9998H42.0215C43.6642 23.9998 44.9998 25.3369 44.9998 26.9781V28.5237H44.9982ZM35.9975 44.9984C35.6143 44.9769 35.2539 44.8096 34.9903 44.5308C34.7267 44.2519 34.5798 43.8828 34.5798 43.499C34.5798 43.1153 34.7267 42.7461 34.9903 42.4673C35.2539 42.1885 35.6143 42.0212 35.9975 41.9997C36.3834 42.0173 36.7478 42.1831 37.0147 42.4625C37.2816 42.7419 37.4305 43.1134 37.4305 43.4998C37.4305 43.8862 37.2816 44.2577 37.0147 44.5371C36.7478 44.8165 36.3834 44.9823 35.9975 44.9999V44.9984ZM16.4959 44.9984C16.1127 44.9769 15.7524 44.8096 15.4887 44.5308C15.2251 44.2519 15.0782 43.8828 15.0782 43.499C15.0782 43.1153 15.2251 42.7461 15.4887 42.4673C15.7524 42.1885 16.1127 42.0212 16.4959 41.9997C16.8819 42.0173 17.2462 42.1831 17.5131 42.4625C17.78 42.7419 17.929 43.1134 17.929 43.4998C17.929 43.8862 17.78 44.2577 17.5131 44.5371C17.2462 44.8165 16.8819 44.9823 16.4959 44.9999V44.9984ZM28.4968 2.99965C30.9892 2.99965 33.3483 3.57337 35.4692 4.56718L26.9967 17.4805V4.50134C26.9975 4.10359 27.1558 3.72235 27.4369 3.44095C27.718 3.15956 28.0991 3.0009 28.4968 2.99965ZM43.1595 11.9628L29.8104 18.6577L38.0635 6.08141C40.203 7.61123 41.9489 9.6269 43.1579 11.9628H43.1595ZM44.9982 19.4994C44.9982 20.3271 44.3241 20.9995 43.4981 20.9995H31.8341L44.2959 14.7498C44.7609 16.2902 44.9975 17.8904 44.9982 19.4994V19.4994ZM47.9984 19.4994C47.9984 20.8773 47.3636 22.0968 46.387 22.9229C47.4187 24.0209 47.9947 25.4699 47.9984 26.9765V28.5237C47.9984 34.1197 44.1376 38.8145 38.9428 40.1234C39.8881 40.951 40.4978 42.1486 40.4978 43.4998C40.4962 44.6925 40.0216 45.8358 39.1783 46.6791C38.335 47.5224 37.1917 47.9969 35.999 47.9986C34.8058 47.9978 33.6617 47.5236 32.8177 46.6802C31.9737 45.8368 31.4987 44.693 31.4971 43.4998C31.4971 42.343 31.9485 41.2974 32.668 40.4996H19.8253C20.5751 41.3193 20.9925 42.3889 20.9962 43.4998C20.9946 44.6927 20.5198 45.8363 19.6762 46.6797C18.8325 47.523 17.6888 47.9974 16.4959 47.9986C15.303 47.9974 14.1592 47.523 13.3156 46.6797C12.4719 45.8363 11.9972 44.6927 11.9955 43.4998C11.9955 42.1517 12.6037 40.9526 13.5474 40.1281C9.24606 39.0261 5.75675 35.565 4.77862 31.0913C4.76608 31.0317 4.67829 30.9377 4.54349 30.8781C1.19995 29.4454 -0.62778 25.8134 0.196738 22.2395C0.511696 20.8944 1.19573 19.6638 2.17189 18.6863C3.14805 17.7087 4.37761 17.023 5.72226 16.7061C9.15985 15.9082 12.6507 17.5447 14.201 20.6829C14.2763 20.8365 14.4267 20.9995 14.6211 20.9995H23.9949V4.49977C23.9966 3.30659 24.4715 2.16279 25.3155 1.31937C26.1595 0.475951 27.3037 0.00180574 28.4968 0.000976562C39.2501 0.000976562 47.9984 8.74777 47.9984 19.501V19.4994ZM6.42922 22.9354C6.1596 23.2207 5.99502 23.6095 5.99502 24.0014C5.99502 24.4058 6.1596 24.7804 6.42922 25.0657C6.71451 25.3353 7.10326 25.4999 7.49514 25.4999C7.88388 25.4999 8.2742 25.3353 8.56105 25.0657C8.83734 24.7794 8.99283 24.3977 8.99526 23.9998C8.99526 23.611 8.8291 23.2207 8.55949 22.9339C8.00458 22.3805 6.98412 22.3805 6.42922 22.9339V22.9354Z" fill="#6E2A83"/>
<path opacity="0.4" fill-rule="evenodd" clip-rule="evenodd" d="M28.4967 3.00181C30.9891 3.00181 33.3482 3.57396 35.4691 4.56934L26.9966 17.481V4.50193C26.9974 4.10419 27.1557 3.72294 27.4368 3.44155C27.7179 3.16015 28.099 3.00149 28.4967 3.00024V3.00181ZM44.998 19.5C44.998 20.3277 44.324 21.0001 43.4979 21.0001H31.834L44.2958 14.7504C44.7608 16.2908 44.9974 17.891 44.998 19.5Z" fill="white"/>
<path fill-rule="evenodd" clip-rule="evenodd" d="M44.9982 28.5237C44.9953 30.9035 44.0485 33.1851 42.3655 34.8678C40.6825 36.5504 38.4008 37.4968 36.021 37.4993H16.4708C12.2886 37.4993 8.60181 34.5367 7.70989 30.4517C7.4873 29.4297 6.74429 28.5566 5.72226 28.1208C3.68448 27.2477 2.61386 25.1049 3.12017 22.9104C3.35834 21.9285 3.92231 21.0563 4.72003 20.4362C5.51774 19.8162 6.50208 19.4848 7.51238 19.4963C9.40752 19.4963 10.8481 20.6704 11.5096 22.0106C12.1131 23.238 13.306 23.9998 14.6211 23.9998H42.0215C43.6642 23.9998 44.9998 25.3369 44.9998 26.9781V28.5237H44.9982ZM35.9975 44.9984C35.6143 44.9769 35.2539 44.8096 34.9903 44.5308C34.7267 44.2519 34.5798 43.8828 34.5798 43.499C34.5798 43.1153 34.7267 42.7461 34.9903 42.4673C35.2539 42.1885 35.6143 42.0212 35.9975 41.9997C36.3834 42.0173 36.7478 42.1831 37.0147 42.4625C37.2816 42.7419 37.4305 43.1134 37.4305 43.4998C37.4305 43.8862 37.2816 44.2577 37.0147 44.5371C36.7478 44.8165 36.3834 44.9823 35.9975 44.9999V44.9984ZM16.4959 44.9984C16.1127 44.9769 15.7524 44.8096 15.4887 44.5308C15.2251 44.2519 15.0782 43.8828 15.0782 43.499C15.0782 43.1153 15.2251 42.7461 15.4887 42.4673C15.7524 42.1885 16.1127 42.0212 16.4959 41.9997C16.8819 42.0173 17.2462 42.1831 17.5131 42.4625C17.78 42.7419 17.929 43.1134 17.929 43.4998C17.929 43.8862 17.78 44.2577 17.5131 44.5371C17.2462 44.8165 16.8819 44.9823 16.4959 44.9999V44.9984ZM28.4968 2.99965C30.9892 2.99965 33.3483 3.57337 35.4692 4.56718L26.9967 17.4805V4.50134C26.9975 4.10359 27.1558 3.72235 27.4369 3.44095C27.718 3.15956 28.0991 3.0009 28.4968 2.99965ZM43.1595 11.9628L29.8104 18.6577L38.0635 6.08141C40.203 7.61123 41.9489 9.6269 43.1579 11.9628H43.1595ZM44.9982 19.4994C44.9982 20.3271 44.3241 20.9995 43.4981 20.9995H31.8341L44.2959 14.7498C44.7609 16.2902 44.9975 17.8904 44.9982 19.4994V19.4994ZM47.9984 19.4994C47.9984 20.8773 47.3636 22.0968 46.387 22.9229C47.4187 24.0209 47.9947 25.4699 47.9984 26.9765V28.5237C47.9984 34.1197 44.1376 38.8145 38.9428 40.1234C39.8881 40.951 40.4978 42.1486 40.4978 43.4998C40.4962 44.6925 40.0216 45.8358 39.1783 46.6791C38.335 47.5224 37.1917 47.9969 35.999 47.9986C34.8058 47.9978 33.6617 47.5236 32.8177 46.6802C31.9737 45.8368 31.4987 44.693 31.4971 43.4998C31.4971 42.343 31.9485 41.2974 32.668 40.4996H19.8253C20.5751 41.3193 20.9925 42.3889 20.9962 43.4998C20.9946 44.6927 20.5198 45.8363 19.6762 46.6797C18.8325 47.523 17.6888 47.9974 16.4959 47.9986C15.303 47.9974 14.1592 47.523 13.3156 46.6797C12.4719 45.8363 11.9972 44.6927 11.9955 43.4998C11.9955 42.1517 12.6037 40.9526 13.5474 40.1281C9.24606 39.0261 5.75675 35.565 4.77862 31.0913C4.76608 31.0317 4.67829 30.9377 4.54349 30.8781C1.19995 29.4454 -0.62778 25.8134 0.196738 22.2395C0.511696 20.8944 1.19573 19.6638 2.17189 18.6863C3.14805 17.7087 4.37761 17.023 5.72226 16.7061C9.15985 15.9082 12.6507 17.5447 14.201 20.6829C14.2763 20.8365 14.4267 20.9995 14.6211 20.9995H23.9949V4.49977C23.9966 3.30659 24.4715 2.16279 25.3155 1.31937C26.1595 0.475951 27.3037 0.00180574 28.4968 0.000976562C39.2501 0.000976562 47.9984 8.74777 47.9984 19.501V19.4994ZM6.42922 22.9354C6.1596 23.2207 5.99502 23.6095 5.99502 24.0014C5.99502 24.4058 6.1596 24.7804 6.42922 25.0657C6.71451 25.3353 7.10326 25.4999 7.49514 25.4999C7.88388 25.4999 8.2742 25.3353 8.56105 25.0657C8.83734 24.7794 8.99283 24.3977 8.99526 23.9998C8.99526 23.611 8.8291 23.2207 8.55949 22.9339C8.00458 22.3805 6.98412 22.3805 6.42922 22.9339V22.9354Z" fill="#253238"/>
<path opacity="0.5" fill-rule="evenodd" clip-rule="evenodd" d="M28.4967 3.00181C30.9891 3.00181 33.3482 3.57396 35.4691 4.56934L26.9966 17.481V4.50193C26.9974 4.10419 27.1557 3.72294 27.4368 3.44155C27.7179 3.16015 28.099 3.00149 28.4967 3.00024V3.00181ZM44.998 19.5C44.998 20.3277 44.324 21.0001 43.4979 21.0001H31.834L44.2958 14.7504C44.7608 16.2908 44.9974 17.891 44.998 19.5Z" fill="white"/>
</svg>

<svg width="48" height="48" viewBox="0 0 48 48" fill="none" xmlns="http://www.w3.org/2000/svg"><path fill-rule="evenodd" clip-rule="evenodd" d="M47.998 19.5c0-10.752-8.747-19.5-19.5-19.5a4.505 4.505 0 00-4.502 4.5V21h-9.374c-.195 0-.345-.163-.423-.317-1.547-3.136-5.04-4.773-8.475-3.976A7.424 7.424 0 00.196 22.24c-.822 3.574 1.004 7.208 4.346 8.64.138.058.224.152.238.212.978 4.474 4.466 7.935 8.767 9.037a4.467 4.467 0 00-1.552 3.37 4.505 4.505 0 004.5 4.502 4.506 4.506 0 004.501-4.5 4.473 4.473 0 00-1.17-3h12.842a4.47 4.47 0 00-1.171 3 4.505 4.505 0 004.5 4.498 4.505 4.505 0 004.5-4.499c0-1.35-.61-2.548-1.554-3.374 5.194-1.31 9.057-6.007 9.057-11.6v-1.547a5.94 5.94 0 00-1.615-4.055A4.474 4.474 0 0048 19.5h-.002z" fill="#CFD8DC"/><path fill-rule="evenodd" clip-rule="evenodd" d="M44.998 28.524a8.987 8.987 0 01-8.977 8.975h-19.55c-4.182 0-7.87-2.962-8.761-7.047-.223-1.022-.966-1.895-1.988-2.331-2.038-.873-3.108-3.016-2.602-5.21a4.468 4.468 0 014.392-3.415c1.896 0 3.336 1.174 3.998 2.515C12.113 23.238 13.306 24 14.62 24h27.4A2.982 2.982 0 0145 26.978v1.546h-.002zm-9 16.474a1.502 1.502 0 010-2.998 1.502 1.502 0 010 3v-.002zm-19.502 0a1.502 1.502 0 010-2.998 1.501 1.501 0 010 3v-.002zM28.496 3c2.493 0 4.852.573 6.973 1.567L26.997 17.48V4.502A1.505 1.505 0 0128.497 3zm14.664 8.963l-13.35 6.695L38.063 6.08a16.624 16.624 0 015.095 5.882h.002zm1.838 7.536c0 .828-.674 1.5-1.5 1.5H31.834l12.462-6.25c.465 1.541.702 3.141.702 4.75zm3 0c0 1.378-.634 2.598-1.611 3.424a5.941 5.941 0 011.611 4.054v1.547c0 5.596-3.86 10.29-9.055 11.6.945.827 1.555 2.025 1.555 3.376a4.505 4.505 0 01-4.499 4.499 4.505 4.505 0 01-4.502-4.5c0-1.156.451-2.202 1.171-3H19.825c.75.82 1.168 1.89 1.171 3a4.505 4.505 0 01-4.5 4.5 4.505 4.505 0 01-4.5-4.5c0-1.347.608-2.546 1.551-3.37-4.3-1.103-7.79-4.564-8.768-9.038-.013-.06-.1-.153-.236-.213C1.2 29.445-.627 25.813.197 22.24a7.424 7.424 0 015.525-5.533c3.438-.798 6.929.839 8.479 3.977.075.154.226.317.42.317h9.374V4.5A4.505 4.505 0 0128.497 0c10.753 0 19.501 8.747 19.501 19.5v-.002zM6.43 22.935c-.27.286-.434.675-.434 1.066 0 .405.165.78.434 1.065.286.27.674.434 1.066.434.389 0 .78-.165 1.066-.434.276-.287.432-.668.434-1.066 0-.389-.166-.78-.436-1.066-.554-.553-1.575-.553-2.13 0v.001z" fill="#6E2A83"/><path opacity=".4" fill-rule="evenodd" clip-rule="evenodd" d="M28.497 3.002c2.492 0 4.851.572 6.972 1.567l-8.472 12.912V4.501a1.505 1.505 0 011.5-1.5zM44.998 19.5c0 .828-.674 1.5-1.5 1.5H31.834l12.462-6.25c.465 1.54.701 3.141.702 4.75z" fill="#fff"/><path fill-rule="evenodd" clip-rule="evenodd" d="M44.998 28.524a8.987 8.987 0 01-8.977 8.975h-19.55c-4.182 0-7.87-2.962-8.761-7.047-.223-1.022-.966-1.895-1.988-2.331-2.038-.873-3.108-3.016-2.602-5.21a4.468 4.468 0 014.392-3.415c1.896 0 3.336 1.174 3.998 2.515C12.113 23.238 13.306 24 14.62 24h27.4A2.982 2.982 0 0145 26.978v1.546h-.002zm-9 16.474a1.502 1.502 0 010-2.998 1.502 1.502 0 010 3v-.002zm-19.502 0a1.502 1.502 0 010-2.998 1.501 1.501 0 010 3v-.002zM28.496 3c2.493 0 4.852.573 6.973 1.567L26.997 17.48V4.502A1.505 1.505 0 0128.497 3zm14.664 8.963l-13.35 6.695L38.063 6.08a16.624 16.624 0 015.095 5.882h.002zm1.838 7.536c0 .828-.674 1.5-1.5 1.5H31.834l12.462-6.25c.465 1.541.702 3.141.702 4.75zm3 0c0 1.378-.634 2.598-1.611 3.424a5.941 5.941 0 011.611 4.054v1.547c0 5.596-3.86 10.29-9.055 11.6.945.827 1.555 2.025 1.555 3.376a4.505 4.505 0 01-4.499 4.499 4.505 4.505 0 01-4.502-4.5c0-1.156.451-2.202 1.171-3H19.825c.75.82 1.168 1.89 1.171 3a4.505 4.505 0 01-4.5 4.5 4.505 4.505 0 01-4.5-4.5c0-1.347.608-2.546 1.551-3.37-4.3-1.103-7.79-4.564-8.768-9.038-.013-.06-.1-.153-.236-.213C1.2 29.445-.627 25.813.197 22.24a7.424 7.424 0 015.525-5.533c3.438-.798 6.929.839 8.479 3.977.075.154.226.317.42.317h9.374V4.5A4.505 4.505 0 0128.497 0c10.753 0 19.501 8.747 19.501 19.5v-.002zM6.43 22.935c-.27.286-.434.675-.434 1.066 0 .405.165.78.434 1.065.286.27.674.434 1.066.434.389 0 .78-.165 1.066-.434.276-.287.432-.668.434-1.066 0-.389-.166-.78-.436-1.066-.554-.553-1.575-.553-2.13 0v.001z" fill="#253238"/><path opacity=".5" fill-rule="evenodd" clip-rule="evenodd" d="M28.497 3.002c2.492 0 4.851.572 6.972 1.567l-8.472 12.912V4.501a1.505 1.505 0 011.5-1.5zM44.998 19.5c0 .828-.674 1.5-1.5 1.5H31.834l12.462-6.25c.465 1.54.701 3.141.702 4.75z" fill="#fff"/></svg>
